X:1
T:Cinq Poëmes de Baudelaire
T:Le Balcon
T:1. Le Balcon
T:Claude Debussy
T:Charles Baudelaire
T:Cinq Poëmes de Baudelaire
T:OpenScore (CC0)
T:OpenScore (CC0)
T:OpenScore (CC0)
T:OpenScore (CC0)
T:OpenScore (CC0)
T:OpenScore (CC0)
T:OpenScore (CC0)
T:OpenScore (CC0)
T:OpenScore (CC0)
C:Claude Debussy
Z:Charles Baudelaire
Z:OpenScore (CC0)
%%score 1 { ( 2 3 7 8 ) | ( 4 5 6 9 ) }
L:1/8
Q:1/4=120
M:4/4
K:C
V:1 treble nm="Chant\nVoice"
V:2 bass nm="Piano"
V:3 bass 
V:7 bass 
V:8 bass 
V:4 bass 
V:5 bass 
V:6 bass 
V:9 bass 
V:1
"^Allegro con moto" z8 | z8 | z8 | z2!mf! (g2!>(! ec GA!>)! | %4
w: |||Mè- re des sou- ve-|
!p! B) z/!<(! (B/ !>!d2-!<)! dc!>(! GE!>)! | ^G4-) G z z2 |!p! (=G2 B2) z (A EC | %7
w: nirs, maî- tres- * se des maî-|tres- ses,|Ô toi, tous mes plai-|
 ^D2) z!<(! (D EA ce!<)! |!f! ^d8-) | ^d2 z2 z4 | z2 (^G2 AA ^AA | (6:4:6B2 ^f2 e2 ^c2 B2 ^G2 | %12
w: sirs! ô toi, tous mes de-|voirs!|_|Tu te rap- pel- le-|ras la beau- té des ca-|
 A2 =C2) z2 (CC | C2 FD (3A2) (A2 c2 |!>(! (3B2 c2 e2!>)! a2) z2 | z2!f! (g2 ec GA | %16
w: res- ses, La dou-|ceur du fo- yer et le|char- me des soirs.|Mê- re des sou- ve-|
 B) z/!<(! (B/ d2-!<)!!>(! dc GE!>)! |!p! ^G6!>(! =G2 | G2)!>)! z2 z4 | z8 | %20
w: nirs, maî- tres- * se des maî-|tres- *|ses,||
 z2!p! !tenuto!D2 !tenuto!D!tenuto!D !tenuto!D!tenuto!D | !tenuto!D2 (E^F A2 AA | ^A6) z2 | z8 | %24
w: Les soirs il- lu- mi-|nés par l'ar- deur du char-|bon,||
!p! (6:4:6z2[Q:1/4=110]"^Poco rit." (_B2 B2 c2 c2 c2 | %25
w: Et les soirs au bal-|
 _B2) z[Q:1/4=105]"^T""^dim." (B cd[Q:1/4=100]"^T" e^e | ^f4-) f2 z2[Q:1/4=90]"_Rit."[Q:1/4=85] | %27
w: con, voi- lés de va- peur|ro- se.|
[Q:1/4=70]"^Più lento"!p! (3:2:2(^f4 ^d2 (3e2 B2 G2 | ^A4) (A2 A2 |!>(! B4 G2 E2!>)! | %30
w: Que ton sein m'é- tait|doux! que ton|coeur m'é- tait|
[Q:1/4=120]"^a tempo" E4) z4 | z8 | z8 |!p! z2"^cresc." (D2[Q:1/4=125] D2 D2 | ^D3 D A4- | %35
w: bon!|||Nous a- vons|dit sou- vent|
 A6)"^dim." (A2 | ^A2 A2 B2 d2 | ^A4 D2) z2 | z8 | %39
w: _ d'im-|pé- ris- sa- bles|cho- ses||
 z2!pp! !tenuto!D2 !tenuto!D!tenuto!D !tenuto!D!tenuto!D | %40
w: Les soirs il- lu- mi-|
 !tenuto!D2 !tenuto!D!tenuto!D !tenuto!D2 !tenuto!D!tenuto!D | D2 z2 z4 || %42
w: nés par l'ar- deur du char-|bon.|
[K:B]"^Moto poco a poco"[Q:1/4=122]"^T" z8 |[Q:1/4=124]"^T" z8 |!mp![Q:1/4=125]"^T" z2 (f2 d2 F2 | %45
w: ||Que les so-|
 =AB ^B2-) (3(B^AG (3D^^CD | E2)!<(! (EF G2 A^c!<)! | e2) z (A!>(! GE DC!>)! | %48
w: leils sont  beaux * par les  chau- des soi-|rées! Que l'es- pa- ce‿est pro-|fond! que le coeur est puis-|
[Q:1/4=127]"_Più moto" ^B,2) z2 z4 | z2!p! (_A2 AA AA | =G2) (=g2- g_e (3_BG_E | =G2- G) z z2 (GG | %52
w: sant!|En me pen- chant vers|toi, rei- * ne des a- do-|ré- es, Je cro-|
[Q:1/4=132]"^ancora più moto" F2 =E=D[Q:1/4=133]"^T" =A2-)[Q:1/4=134]"^T" (3(A^AB | %53
w: \- yais res- pi- rer * le par-|
[Q:1/4=135]"^T" =c4)!<(! (=d2- (3de^e!<)! | %54
w: fum de _ _ ton|
!f! ^f4)[Q:1/4=115]"^T" z4[Q:1/4=120]"^Rit."[Q:1/4=110]"^T" | %55
w: sang.|
!mp![Q:1/4=100]"^Più lento" z2 (f2 d2 F2 | =AB!>(! ^B2- (3BAF (3D^^C!>)!D | E2 E)!pp! z z4 | z8 | %59
w: Que les so-|leils sont beaux _ par les chau- des soi-|ré- es!||
 z8 | z8 ||[K:F][M:4/4][Q:1/4=95]"^Andantino" z8 | z8 | %63
w: ||||
 z2!p! !tenuto!C2 !tenuto!C!tenuto!C !tenuto!C!tenuto!C | %64
w: La nuit s'é- pais- sis-|
 !tenuto!C!tenuto!C !tenuto!E3 !tenuto!E !tenuto!E!tenuto!E | !tenuto!D2 z2 z4 |!p! (B2 c2 _d2 cd | %67
w: sait ain- si qu'u- ne cloi-|son,|Et mes yeux dans le|
 =d2 (3(cB)^F D2!<(! EF!<)! |!>(! A4!>)! =F2) z2 | %69
w: noir de- * vi- naient tes pru-|nel- les|
[Q:1/4=98]"^Un poco moto" z!p! (^E ^F^G[Q:1/4=101]"^T" A3 E |[Q:1/4=104]"^T" ^E2 (^D=D) ^C2) z2 | %71
w: Et je bu- vais ton|souf- * * fle,|
 z!<(! (A2 A!<)! B4) | z!<(! (A2 A!<)! d4) |!pp! (d2 ^d2 ^E2 ^F^G | A2) (=B^c c2- (3cBA | %75
w: O dou- ceur,|ô poi- son!|Et tes pieds s'en- dor-|maient dans mes mains _ fra- ter-|
"^dim." ^G8-) | G2 z2 z4 | z2!p! (!tenuto!C2 !tenuto!C!tenuto!C!tenuto!C!tenuto!C | %78
w: \- nel-|les,|La nuit s'é- pais- sis-|
 !tenuto!C!tenuto!C !tenuto!E3 !tenuto!E!tenuto!E!tenuto!E | !tenuto!D2) z2 z4 | z8 | %81
w: sait ain- si qu'un- e cloi-|\- son||
"_Poco a poco animato"[Q:1/4=108]"^T" z8[Q:1/4=109]"^T"[Q:1/4=110]"^T" | %82
w: |
[Q:1/4=112]"^T" z8[Q:1/4=113]"^T"[Q:1/4=114]"^T"[Q:1/4=115]"^T" | %83
w: |
[Q:1/4=116]"^T" z8[Q:1/4=117]"^T"[Q:1/4=118]"^T"[Q:1/4=119]"^T" |[Q:1/4=120]"^T" z8 | %85
w: ||
 z8[Q:1/4=115]"_molto rit."[Q:1/4=112]"_T"[Q:1/4=110]"_T" | z8 || %87
w: ||
[K:A]!p![Q:1/4=108]"_Andante con moto" z"^dolce  ed  espress." (E2 E ^D2 FA | %88
w: Je sais l'art d'é- vo-|
 (3=cc^c (3e=d^d f2 G2) | z!<(! (F GA ^AB =df!<)! |!>(! =ge B=G!>)! G2) z2 | z4!p! (C2- (3CE^E | %92
w: quer  les mi- nu- tes heu- reu- ses,|Et re- vis mon pas- sé blot-|ti dans tes ge- noux.|Car _ à quoi|
 (3(FG)!<(!^A (3Bcd (3_e=c=G (3:2:2=F2!<)! _E) | z2 z!<(! (=E =F2 (3^F=G_B!<)! | %94
w: bon _  cher- cher  tes  beau- tés lan- gou- reu- ses|Ail- leurs qu'en  ton  cher|
 _B2)!>(! (E2 ^G2 E2!>)! |!p! =B4!>(! ^A2 =G2!>)! | B6) z2 |!pp! z (E2 E ^D2 FA | %98
w: corps et qu'en ton|coeur _ si|doux?|Je sais l'art d'é- vo-|
[Q:1/4=100]"^Rit." (3=cc"^dim."^c (3e=d^d[Q:1/4=95]"^T" f2 G2) |[Q:1/4=90]"^T" z8 | z8 | z8 | z8 || %103
w: quer  les mi- nut- es heu- reu- ses!|||||
[K:C][Q:1/4=85]"^Più lento" z4!p! z !tenuto!D2 !tenuto!D | %104
w: Ces ser-|
 !tenuto!D2[Q:1/4=80]"^T" z2 z!<(! (B2 ^G!<)! |!>(! d2)!>)! z4 z2 | %106
w: \- ments, Ces par-|fums,|
 (6:4:6z2!<(! (_B2 =B2 d2 c2 ^c2!<)! |[Q:1/4=108]"^tempo (Andante con moto)"!>(! e6)!>)! z2 | %108
w: ces bai- sers in- fi-|nis,|
 z2!p! (^C2 D2!<(! E2 | ^E^F!<)! ^A4!>(! ^GF | =F2!>)! FF ^F2- F) z | z4!p! (B3 B | %112
w: Re- naî- tront-|ils d'un  gouffre in- ter-|dit à nos son- des|Com- me|
"^cresc." B4 B2 ^c2 | e4-) (e ^d2 e | f2 ca a3) z | z2!p! (g2 e2 G2 | ^GA ^c4 (AE) | F4)!<(! (=G4 | %118
w: mon- tent au|ciel _ les so-|leils ra- jeu- nis|A- près s'ê-|\- tre la- vés au *|fond des|
 A4 B4)!<)! |!mf! (g8- |!>(! g4 G4!>)! |[Q:1/4=100]"^Più lento" G2) z2[Q:1/4=95]"^T" z4 | %122
w: mers pro-|fon-||des?|
[Q:1/4=90]"^T" z2!p! (F4 ^F2 | G4) z4 | z2 (_A4 =A2 | _B4) z4 | %126
w: Ô ser-|ments!|ô par-|\- fums!|
!pp! (6:4:6z2!<(! (_B2 =B2 d2 c2 ^c2!<)! |!p!!>(! e8-) | e4!>)! z4 | z8 | z8 |] %131
w: ô bai- sers in- fi-|nis!|_|||
V:2
!p! (G,3 B,) (G,3 B,) | G,2[K:treble]!<(! A2- AG (3EG,!<)!A, | %2
 ([Bb]!mp![Aa]!<(! (3[A,A][B,B][Cc]-!<)!!>(! [Cc][^C^c] ^D!>)!E) | x2 (3[EG][Gc][ce] [eg]2 z2 | %4
 (3z (EF!<(! ^FB AG [CGc]!<)![Ece]) |!p! (3^E^A!>(!=A ^GG x4!>)! | %6
!p! (_E!<(!F (3GAB- B!<)!A) (3aec |!p! (_E!<(!F (3GAB- B!<)!A)!<(! (3e'c'a!<)! | %8
!f! (3(^g'^c'a ^e^f) (3(^g^cA ^E^F) |!p! (3(^g'^c'"_dim."a ^e^f) (3(^g^cA ^E^F) | %10
!p! (B3 ^d) (B3 d) |!<(! (B2 ^c'2-!<)! c'!>(!b (3^g^AB)!>)! |!p! =c3 e c3 e | %13
 (c2 d'2- d'c' (3acd) |!p! ([^EB^d]2!pp! =e'2-)!<(! (e'c' (3a^c=d)!<)! | %15
!f! (3z ([dd'][^d^d'] [ec'e'][aa']) (3z!>(! ([Dd][^D^d] [Ece][Aa])!>)! | %16
!p! (3z (E!<(!F ^F!<)!B!>(! AG [CGc]!>)![Ece]) |[K:bass] (^D6 E2 | =D2 C2)[K:treble] (d2 c2 | %19
 _B2)!p! (d2"_dim." _b2 d2 | (3[_Bd][GB][Ac] [GBd]2-) ([GBd] [GB]2 G | ^G2!pp! ^F2-) (FE- (3EDE | %22
!p! [^A,^C]8) |!pp! z2"_m.g." (_B2 _g2 B2) | (6:4:6(_B2"_dim." _G2 _A2 B2 G2 C2) |!pp! _g4 x4 | %26
!ppp! [=B,^D^F=B]8 |!p! b4-!>(! (3b2 g2 e2 | G8!>)! | z2!>(! (B2"_m.g." g2 B2)!>)! | %30
!pp! B2!<(! G2-!<)!!>(! (3:2:2G2 E4!>)! |!<(! (^f2!<)! d2-!>(! (3d2 A2 ^F2)!>)! | %32
!<(! B2 G2-!<)!!>(! (3:2:2G2 E4!>)! | (^f2"^cresc." d2- (3d2 A2 ^F2) | %34
 ([Bgb]2!<(! [A^fa]2- (3[Afa]2 [Geg]2 [^F^df]2)!<)! | %35
 ([Bgb]2!<(! [A^fa]2- (3[Afa]2 [Geg]2 [^Fdf]2)!<)! |!p!!>(! (^f'4 a'2 g'2!>)! | %37
 ^f'2) ^F2- (3F2 A2 G2 | z2!pp! (d2"_m.g." _b2 d2 | (3d_Bc d2- d B2 G) | %40
!>(! (^G2 ^F2- FE- (3ED!>)!E) |!>(! (^G2 ^F2- FE- (3ED!>)!E) || %42
[K:B]!p! (!arpeggio![EG]2!<(! F2- FE- (3ED!<)!E) |!p!!<(! ([EG]2 F2- FE- (3EDE)!<)! | %44
!mp! (f3 a) (f3 a) |!<(! (f2 g'2)!<)!!>(! g'(f' (3d'f!>)!^^f) | %46
!mf! (!arpeggio![Aeg]2!<(! ^f2- fe- (3ede)!<)! |!p! (G2!>(! F2- FE- (3ED!>)!E) | %48
!p! (G3 ^B) (G3 B) | (G2 _b2- b_a (3=f_A=A) |!p! (_B3 =d) (B3 d) | %51
 _B2!<(! [=g=c']2-!<)! [gc']!>(!_b (3gB!>)!=B | ([=C_G=c]2 =d'2-"_cresc." d'=c' (3=a^AB) | %53
 [_G=c]2 =d'2-!<(! d'=c' (3[=d=ad'][ee'][^e^e']!<)! |!f! ^c'2 =d'4 ^d'2 |!p! c2 B4 ^A2 | %56
 [=A,D=A][B,B]!pp! (g2- g!>(!f (3dGA)!>)! |!pp! x4 a4 | x4 a4 |!pp! x4 _b4 | x4 _b4 || %61
[K:F][M:4/4][K:bass]!pp! (3:2:1(C3- (3:2:2C2 E) (3:2:1(C3- (3:2:2C2 E) | %62
!<(! (C2[K:treble] d2-!<)!!>(! dc (3_AB,!>)!=B,) | %63
[K:bass] (3:2:1(C3- (3:2:2C2 E) (3:2:1(C3- (3:2:2C2 E) | %64
!<(! (C2[K:treble] d2-!<)!!>(! dc (3def!>)! |!pp! ^f8) | %66
 (3:2:1([Aa]3 (3:2:1[Gg]3 (3:2:1[A,A]3 (3:2:1[B,B]3) | %67
 (3([=D^FB][d^f][Bd] (3[Fc][DB][CF]) (3z ([df][Bd] (3[Fc][DB][CF]) | %68
!ppp! (3z [d'a'][=b=f'] (3[ad'][=fb]!>(![da] (3[=Bf][Ad][FB] (3[DA]!>)![=B,F][A,D] | %69
!p! (D^D- (3D^F=F) z!<(! (^c2 e)!<)! |!p! (=D^D (3D^F=F) z!<(! (^c2 e)!<)! | %71
 ^DE- (3EG^F z!<(! (d2 f)!<)! | ^DE- (3EG^F z!<(! (dfb)!<)! | %73
!pp! (3:2:1([=B=b]3- (3:2:2[Bb]2 [^d^d'] [B^eb]2) [=B,^E]2 | %74
 ([=A,=E=G]2 [^F^c^f]2- [Fcf][Ee] (3[^Cc][^B,^D][CE]) | z"_dim." =B2 ^d z (=b^a^g) | %76
!p!"_dim." [^D^E]4- [DE] z[K:bass] =B,,2 |!pp! (3(A,C!>(!A, (3CA,C (3A,CA, (3CA,C)!>)! | %78
 (3(A,CA, (3CA,C[K:treble] (3AcA (3cAc) | %79
 (3([Dc][Fd][Dc] (3[Fd][Dc][Fd] (3[DB][Fd][DB] (3[Fd][DB][Fd]) | %80
 (3([Dc][Fd][Dc] (3[Fd][Dc][Fd]) (3([DB][Fd][DB] (3[Fd][DB][Fd]) | z!>(! (g2 f-!>)! f2) x2 | %82
 z (g2 f f2) x2 | z!<(! ([^f-^c']2 [f=b]!<)! f2) x2 | z!<(! ([^f-^c']2 [f=b]!<)! f2) x2 | %85
!mf! (3z z (!>![Aa]- (3:2:2[Aa]!>(! [^Gd^g]2- (3[Gdg][^F^f]!>)!F ED) |!p! (^C3"^dim." E) (C3 E) || %87
[K:A]!p! z (g2 f G B2 A) | (3:2:2([_B,=C]2 [=B,^C] (3ED^D) F(F ^E2 | %89
 (3:2:1(A3-)"_cresc." (3AG3/2F/) (3:2:1(d3- (3dc3/2B/) | %90
!mf! (3[B=g][=Ge]3/2[EG]/ (3:2:1[GB]3"_dim." (3([Bg][Ge]3/2[EG]/ [GB]2-) | %91
!p! (3(BA3/2F/"^cresc." ^E2- E^D- (3D^^F^G) | (3(^dc3/2^A/ (3:2:1=A3- A=G- (3=GB=c) | %93
 (3(=g=f3/2d/ A_B- (3B=cd (3d'_bg) | (3(=g=f3/2d/"_dim." A^A- (3A^ce (3^gc'e') | %95
!p!!8va(! ([ge'g'][f^d'f']- (3[fd'f'][ec'e'][^d-bd'-]) (3([dd'][^B^b][cc']- (3[cc'][^A^a][=g=g']) | %96
!>(! ([^ge'^g'][f^d'f']- (3[fd'f'][ec'e']!>)![^dbd'])!8va)!!>(! ([Geg][F=df]- (3[Fdf][Ece][^DBd])!>)! | %97
!pp! [CAc]4 [=C^D=c]4 | (3:2:2(=C2 ^C (3ED^D [B,=DF]) (([DFc]2 [dfc']-)) | %99
!pp! ([fc']2 [=fd']2) ([^fc']2 [=fd']2) |!<(! (c'4!<)!!>(! d'4)!>)! | %101
!p! ([DB] [B,=G]2!<(! [=G,D]) ([Gd] [DB]2 [B,G])!<)! | (f3 a) (f3 a) || %103
[K:C]!p! !tenuto!.[^Fe^f]!<(! (D2 ^D!<)!!>(! F2 =F2)!>)! | %104
!p! !tenuto!.[^Fe^f]!<(! (D2 ^D!<)!!>(! F2 =F2)!>)! |!pp! x!<(! (_B,2 =B,!<)!!>(! D2 _D2)!>)! | %106
!pp! (6:4:6(!tenuto!.[c=d_ac']2"_cresc." _B,2 =B,2 D2 C2 ^C2) |!p! (E3 ^G) (E3 G) | %108
 [^CE]2 ^f2- (fe (3^c^DE |!<(! =E^F)!<)! (^g2!>(! e2!>)! ^G2 |!p! =G4)!>(! z (a^fA)!>)! | %111
 z4 z (^c'a^c) |!p!"_cresc." ([^F^f]2 [Ee]2) z (^g'e'^g-) | %113
 g!8va(!!<(! !tenuto!.[^ge'^g']2 !tenuto!.[ge'g']2 !tenuto!.[^^fe'^^f']2 !tenuto!.[ge'g']!<)! | %114
!>(! (([bc'=f'b']4 [ac'f'a'-]4))!>)! |"^m.g." a'2!mp! ([gg']2 [ec'e']2!8va)! [Gg]2 | %116
!<(! [^G^g][Aa] [^ce^c']2-!<)! (3[cec']!>(![Bb][Aa] (3[EAe][^D^d][Ee])!>)! |!p! ([=F=f]4 [Gg]4 | %118
 [A^da]4 [Bdb]4) |!mf! ([ff']8- | [ff']4 [ee']4 |!p! [dd']4 [cc']4) |!<(! [_A,_B,]6!<)! [=A,=B,]2 | %123
!p! z2 (g2"_m.g." e2 G2) |!<(! [_A,_B,]6 [=A,=B,]2!<)! |!p! (6:4:6(G2!>(! E2 F2 G2 E2 G,2)!>)! | %126
 (6:4:5[_B,F_B]4!<(! [=B,^F=B]2 [Dd]2 [Cc]2 [^C^G^c]2!<)! |!p! z2 (e'2 c'2 e2) | %128
!pp! z2 (G2 E2 G,2 |!ppp! ([G,DG]8) |!ppp! [Gcg]8) |] %131
V:3
 (3z D,^D, E,2 (3z E,F, ^F,2 | x2[K:treble] x6 | ^d2 ^D2 ^F2 [=F,B,]2 | %3
 (3=DCE[I:staff +1] (3C[I:staff -1]EG c2 x2 | B,2 C4 x2 | ([=EB^d]3 B [^E^G][^DE][B,D][^G,B,]) | %6
 B,2 _E2 =E2 !arpeggio![Ae] z | B,2 _E2 =E2 !arpeggio![ea] z | x8 | x8 | x2 ^G,2 x2 ^A,2 | x8 | %12
 x8 | x8 | x2 [^f=c']4 c2 | x8 | B,2 C4 x2 |[K:bass] (([^E,B,-]6 [=F,B,]2) | %18
 [=E,G,]4)[K:treble] [EG]4 | [DG]2 _B4 x2 | x8 | E2 D2- DC- (3:2:2C A,2 | z2 (G,2 E2 G,2 | %23
 =F2) _G6 | _G4 G4 | (6:4:6([_B_b]2"_dim." [_G_g]2 [Aa]2 [Bb]2 [Gg]2 [Cc]2) | x8 | [^d^f]4 e4 | %28
 [Dd]2 [^C^c]4 [=C=c]2 | B4- (3B2 G2 E2 | [=DG]2 [^CE]2- (3[CE]2 [B,D]2 [A,C]2 | %31
 [A^c]2 [GB]2- (3[GB]2 [D^F]2 [A,D]2 | [DG]2 [^CE]2- (3[CE]2 [B,D]2 [A,C]2 | %33
 [A^c]2 [G-B]2 (3[GB]2 [D^F]2 [A,D]2 | x8 | x8 | [e^a]4 [db]4 | [e^a]2 ^A,2 B,4 | ^F4 =F4 | %39
 [_B,E]4 G2 E2 | D2 C2- CA,- (3:2:2A, ^F,2 | D2 C2- CA,- (3:2:2A, ^F,2 ||[K:B] x2 D2 C2 A,2 | %43
 x2 D2 C2 A,2 | [DB]2 [Fd]2 z2 [Fd]2 | [Fd]2 [g-d']2 [gd']f d2 | E2 d2 c4 | [A,E]2 D2 C2 A,2 | %48
 [F,^B,]2 z2 B,4 | ^B,2 [_A=d]4 A2 | (3z =F=G (3z _EG (3z =DG (3z =CG | (3z _B,=G =c2- c_B G2 | %52
 x2 [=d^f]2- [df]=c [=A^d]2 | =C2 [=d^f]2- [df]=c x2 | ([ff']3"_dim." [aa']) ([ff']3 [aa']) | %55
 ([DFf]8 | x2 [Gd]2-) [Gd]F D2 | ([CE^A]4 ([dd']2) [ee']2) | ([CEA]4 ([dd']2) [ee']2) | %59
 [_DE_B]4 ([_e_e']2 [=e=e']2) | [_DE_B]4 ([_e_e']2 [=e=e']2) || %61
[K:F][M:4/4][K:bass] (3(CA,G, (3F,[I:staff +1]D,C,)[I:staff -1] (3(C^G,^F, (3E,[I:staff +1]D,C,) | %62
 (3CC,A,[I:staff -1][K:treble] [D-A]2 _A2 _A,2 | %63
[K:bass] (3(C=A,G, (3F,[I:staff +1]D,C,)[I:staff -1] (3(C^G,^F, (3E,[I:staff +1]D,C,) | %64
 (3CE,A,[I:staff -1][K:treble] A6 | %65
 (3[^Fd][Bd][Fc] (3:2:2[DB] [CF]2 (3z ([Bd][Fc] (3:2:2[DB] [CF]2) | (3AdB (3GdB (3A,G_D (3B,GD | %67
 x8 | x8 | x5 [EA]2 x | x5 [EA]3 | x5 [F_B]3 | =C2 ^C2 x [FB]2 [Bf] | ^e4 x4 | x8 | %75
 [^G,=B,^E]2 x2 =B4 | x6[K:bass] x2 | (3:2:1(C,3- (3:2:2C,2 E,) (3:2:1(C,3- (3:2:2C,2 E, | %78
 C,4)[K:treble] [EF]4 | x8 | x8 | %81
 (3[D=B][Fd][DB] (3[Fd][DB][Fd] (3[DB]"^e crescendo"!<(![Fd][DB] (3[Fd][DB][Fd]!<)! | %82
 (3([D=B][Fd]!>(![DB] (3[Fd][DB][Fd]) (3([DB]!>)![Fd][DB] (3[Fd][DB][Fd]) | %83
 (3([D=B][^Fd][DB] (3[Fd][DB][Fd]) (3([DB][Fd][DB] (3[Fd][DB][Fd]) | %84
 (3([D=B][^Fd][DB] (3[Fd][DB][Fd]) (3([DB][Fd][DB] (3[Fd][DB][Fd]) | %85
 (3[D=B][^Fd][I:staff +1][DB][I:staff -1] x2 x2 [^F,A,]2 | ^E,2 ^F,2 ^^F,2 ^G,2 || %87
[K:A] [A,C]4 ^D4 | x2 (3:2:2=C2 ^C [B,=D] D3 | (3:2:1C3 (3:2:1E3 (3:2:1F3 (3DEF | x8 | %91
 (3=GFA, (3^A,^^G,3/2A,/ B,2 (3B,=E^E | (3B^A3/2F/ (3:2:1=F6 (3F^G=A | %93
 (3:2:1[=F_B]3 (3=G^F3/2G/ (3:2:1_A3 (3:2:2d2 =c | (3:2:1[=F_B]3 E2- (3EEG (3:2:2c e2 | %95
!8va(! x4 ^a4 | x4!8va)! x4 | z G2 F x4 | (3:2:2_B,2 =B, (3:2:2=C2 ^C x4 | d4 d4 | [d^f]8 | x8 | %102
 (d2 c2 B2 c2) ||[K:C] x C2 ^C ^D4 | x =C2 ^C =D4 | !tenuto!.[=cd_a=c'] _A,2 =A, _B,4 | %106
 (6:4:5x2 _A,2 =A,2 _B,4 =B,2 | [^F,^B,]8 | x2 [A^c]4 ^C2 | [^C^E]2 ^A2- (3A^G^F (3^C^B,C | %110
 [=B,D]!<(! [A,=C]2 [G,B,]!<)! [B,^FB]2 [CFc]2 | ([B,D] [A,C]2 [G,B,] [B,^DB]2 [^CA^c]2) | %112
 ^G>B G>B x4 | x!8va(! x7 | x8 | [ac'e']2 x4!8va)! x2 | ^c4 x4 | %117
 (6:4:6(B2"_cresc." G2 A2 B2 G2 B,2) | (6:4:6(B2 G2 A2 B2 G2 B,2) | (6:4:6(b2 g2 a2 b2 g2 B2) | %120
 (g3 b) (g3 b) | [eg]8 | x8 | [_B,D]4 C4 | x8 | [_B,D]4 C4 | x4 G4 | [E=ce]8 | [=F,B,E]8 | x8 | %130
 x8 |] %131
V:4
 z G,,3 z G,,3 | (E,,C, (3E,G,C E4) | B,2 C2 A,2 x2 | (3:2:2[E,G,]2 G, x2 z4 | G,,2 C,4- C, z | %5
 (3z (=A,^A, B,^E ^DB,^G,^E,) | _E,F, (3G,A,B,- B,A, x2 | %7
 _E,F, (3G,A,B,- B,A,[K:treble] !arpeggio![CEAc] z |[K:bass] z2[K:treble] (=cB) z2[K:bass] (=CB,) | %9
 z2[K:treble] (=cB) z2[K:bass] (=CB,) | (3z ^F,G, x2 (3z ^G,A, x2 | ^G,,E, (3^G,B,E ^G2 x2 | %12
 (3z (=G,^G,[I:staff -1] A,2)[I:staff +1] (3z (A,_B,[I:staff -1] =B,2) | %13
[I:staff +1] (A,,F, (3A,CF[I:staff -1] AGF[I:staff +1]A,) | ^C2 (3(A,DF[K:treble] [=ce]2 [D^F]2) | %15
[K:bass] (3z[K:treble] (D^D [EGc]2)[K:bass] (3z (D,^D, [E,G,C]2) | (3x E,F, ^F,B, A,G, (G,2 | %17
 ^G,2 ^C,2 ^G,,2 =G,,2- | (G,,4) G,4-) | x2 G2 ^F2 =F2 | G3 x D4 | D2 C2- CA,- (3:2:2A, ^F,2 | %22
 E,4 ^C,4 | [_E,,_B,,]4 _E,4 | _D4 C4 | !tenuto!.[_A,,,_A,,]4 (3z2 !tenuto!._G,2 !tenuto!._G2 | %26
 (3z2 (!tenuto!.^F,2[I:staff -1] !tenuto!.^F2)[I:staff +1] (3z2 (!tenuto!.B,2[I:staff -1] !tenuto!.B2) | %27
[I:staff +1] z2 (B,2 G2 B,2 | ^A,2 ^D,6) | G,,8 | (G,4 A,,4) | (A,4 A,,4) | (G,4 A,,4) | %33
 (A,4 A,,4) | z2 (^D,2 (3[^D^F]2 [CE]2 [A,D]2) | z2 (=D,2 (3[=D^F]2 [CE]2 [A,D]2) | %36
 x4[K:treble] [GB]4 |[K:bass] x2 (^C2 D2 E2) | [C,,G,,]8 | (E,4 G,2 E,2) | %40
 E,2 D,2- D,C,- (3:2:2C, A,,2 | (E,2 D,2 D,C,- (3:2:2C, A,,2) ||[K:B] !arpeggio![E,A,]2 x2 x4 | %43
 [E,A,]2 x2 x4 | z2 (3z CD (3z B,D (3z A,D |[K:treble] (=A,B, (3^B,DG-) ^B4 | %46
[K:bass] [F,,,F,,]2 z !arpeggio![C,G,F] !arpeggio![E,CG]2 !arpeggio![F,CA]2 | %47
 [F,,,F,,]2 z [C,F,] [E,G,]2 F,2 | (3z DF (3z =DF (3z ^EF (3z =EF | %49
 (3[DF]D,G,, (3_A,_B,=C (=F2 =D2) | (_B,,2 _B,4 B,,2) | x4 E=D =C=G, | %52
 x2 (3(=C=D^F[K:treble] =c2)[K:bass] (3^D^A,B, | x2 (3(=C=D^F[K:treble] =c2) [=A,=D=c]2 | %54
 (^c2 =d4 ^d2) |[K:bass] [B,,,F,,]8 | [^B,,,F,,D,]2[K:treble] [=A,^B,^B]4[K:bass] [^B,,F,]2 | %57
 x4 [E=G]4 | x4 [E=G]4 | x4 [E=G]4 | x4 [E=G]4 || %61
[K:F][M:4/4] (3:2:1[F,,,F,,]3 (3:2:2z2 z (3:2:1[^G,,,^G,,]3 (3:2:2z2 z | z2 (A,2 _A,2 D,2) | %63
 (3:2:1[F,,,F,,]3 (3:2:2z2 z (3:2:1[^G,,,^G,,]3 (3:2:2z2 z | x2[K:treble] (3DEA E2 DC | %65
[K:bass] (3:2:1!>!B,3- (3:2:2B,2 D (3:2:1!>!B,3- (3:2:2B,2 D | ([D,B,]4 [B,,_D]4) | %67
 (3:2:1(B,3- (3:2:2B,2 D) (3:2:1(B,3- (3:2:2B,2 D) | %68
"^m.d." (3:2:1([=F,A,D]3- (3:2:2[F,A,D]2 [G,=B,F] [F,A,D]4) | %69
[I:staff -1] ^G,4[I:staff +1] z (A,=B,^C) | x4 z (A,=B,^C) | %71
[I:staff -1] =C2 ^C2[I:staff +1] z (_B,=CD) | ^D,E,- (3E,G,^F, z (B,CD) | %73
 (3(^G,,^E,^G, (3=B,^E^G[K:treble] ^d=B^A^G) |[K:bass] [A,,E,]2 [G,A,^C]4 [G,A,]2 | %75
 z2[K:treble] ^A2 ^G2 ^F2 |[K:bass] ^G,2 ^E,4 x2 | (A,,6 =G,,2 |"^sempre dolcissimo" F,,6) z2 | %79
 z2 (F,2 [B,G]4) | z2 F,2[K:treble] G2 _A2 | z4 z (G2 _A | z4) z!<(! G2 _A!<)! | %83
 z4 z!<(! =A2 ^G!<)! | z4 z (A2 ^G) | %85
[K:bass] (3:2:2[D,^F,=B,]2[K:treble] x (3:2:2[^Fd][K:bass] =B,,2 (3:2:2(A,,2 =F, E,D,) | %86
 (^G,,2 A,,2 ^A,,2 D,2) ||[K:A] C,4"^espress." (B,2 =C2) | (3:2:2=G,2 ^G, (3:2:2A,2 ^A, =A,2 x2 | %89
 (3:2:1A,6 (3CB,3/2A,/ (3:2:1F,3 | (FE DC) (FE (3DC3/2B,/) |!p! (3:2:2A,2 D, C,2- C,B, ^A,G, | %92
 (3:2:1C3 (3=DCD (3:2:1_E3- (3ED=C | (_B,2 ^C2 D2[K:treble] (3:2:2[E_B]2 [E=G]) | %94
[K:bass]!p! x2 (3:2:1=G,3 (3^G,^A,C[K:treble] (3B^AG | z (^D (3[B^d][Ac][FB]) z (=GeG) | %96
 z (^D (3[B^d][Ac][FB])[K:bass] z =D- (3DCB, | x4 G, B,2 A, | %98
 (3:2:2=G,2 ^G, (3:2:2A,2 ^A, =A,2 G,G- |[K:treble] (G3 B) (G3 B) | %100
 (GA"^m.d." b2-) ba (3f"_m.g." A^A |[K:bass] (=G,6 A,2 | B,2 C2 D2 CB,) || %103
[K:C] z ([^F,A,]2 [^^F,^A,] [^G,B,]4) | z ([^F,A,]2 [^^F,^A,] [^G,B,]4) | %105
 z ([D,=F,]2 [^D,^F,] [E,=G,]4) | (6:4:5z2 ([=D,=F,]2 [^D,^F,]2 [E,G,]4 [^E,^G,]2) | %107
 z2 ^B,,4 B,,2 | E,2 x2 x4 | ^E,^F, [^F,^CE]4 ^A,2 | =F,4 x4 | =F,4 x4 | %112
 z (B,,^G,B,)[K:treble] [^D^F^G^d]2 [^CEG^c]2 | z2[K:bass] E,2 C,2 E,,2 | %114
 z (C,F,A, [F,C][A,F][K:treble] [CA][Fc]) |[K:bass]"^m.d." x2 (G2 E2 G,2) | [^CE]4 [CE]4 | %117
 [F,B,^D]8 | [F,B,^D]8 | (6:4:6z2 (G2 A2 B2 G2 B,2) | (6:4:6z2 (G2 A2 B2 G2 B,2) | z2 (G2 E2 G,2) | %122
 [D,F,]6 [^D,^F,]2 | [C,,G,,E,G,]8 | ([D,F,]6 [^D,^F,]2) | [C,,G,,E,]8 | %126
 (6:4:4([D,_A,]4 [^D,=A,]2 [E,_B,]4 [^E,=B,]2 | ([D,,A,,^F,C]8) | [G,,,G,,]8 | [C,,G,,E,]8-) | %130
 [C,,G,,E,CE]8 |] %131
V:5
 C,,2 ^C,,2 D,,2 ^D,,2 | E,,4 x4 | [^F,,^D,]4 B,,2 G,,2 | [C,,G,,]2- [C,,G,,] z x4 | %4
 D,,2 ^D,,2 E,,2- E,, z | [^C,,^G,,]8 | (G,,,4 C,,2) !arpeggio![_E,A,CE] z | %7
 G,,4- G,,2[K:treble] x2 |[K:bass] x2[K:treble] [^DA]2 x2[K:bass] [^D,A,]2 | %9
 x2[K:treble] [^DA]2 x2[K:bass] [^D,A,]2 | B,,4 B,,4 | ^G,,6 [D,^G,=F]2 | C,8 | A,,6 z2 | %14
 ^G,2 D,6[K:treble] |[K:bass] [G,,,G,,]8[K:treble][K:bass] | G,,2 C,4 x2 | x8 | =C,,8 | G,2 (G6 | %20
 E3 _E D2 ^C=C) | (=B,2 A,2- A,^F,- (3:2:2F, C,2) | ^F,,8 | x8 | _F,3 _E, =D,4 | %25
 x4 !tenuto!.[D,,,D,,]4 | [=A,,,=A,,]8 | [G,,,G,,]8 | G,,8 | x8 | !arpeggio![E,,A,,]8 | [D,,A,,]8 | %32
 [E,,A,,]8 | [D,,A,,]8 | [=C,,=C,]8 | [C,,C,]8 | z2[K:treble] (^C2 D2 E2) |[K:bass] [G,,,G,,]8 | %38
 x8 | !arpeggio![C,,G,,]8 | (B,,2 A,,2- A,,^F,,- (3:2:2F,, D,,2) | %41
 (B,,2 A,,2- A,,^F,,- (3:2:2F,,) D,,2 ||[K:B] [F,,,F,,]2 z ([C,F,] [E,G,]2 F,2) | %43
 [F,,,F,,]2 z ([C,F,] [E,G,]2 F,2) | [F,,,F,,]2 z2 z4 |[K:treble] x4 (G2 =A2) |[K:bass] x8 | x8 | %48
 [D,,G,,]8 | x4 =D=C _B,=F, | _E,,8 | _B,,2 (3_B,,E,=G, =G2 E2 | %52
 [_A,,_E,_G,]2 [=A,,^F,]4[K:treble][K:bass] [=B,,F,]2 | %53
 [_A,,_E,_G,]2 [=A,,^F,]4[K:treble] (3:2:2(F2 ^E | [^A,=EF]8) |[K:bass] x8 | %56
 x2[K:treble] x4[K:bass] x2 | (.E,2 .=G,2 .A,2 .C2) | (.E,2 .=G,2 .A,2 .C2) | %59
 (.E,2 .=G,2 ._B,2 ._D2) | (.E,2 .=G,2 ._B,2 ._D2) ||[K:F][M:4/4] x8 | %62
 (3:2:1[A,,,A,,]3 (3:2:1[_B,,,_B,,]6 x2 | x8 | [A,,,A,,]8[K:treble] |[K:bass] [_A,,D,^F,]8 | %66
 (G,,4 _E,,4) | [_A,,,_A,,]4 [A,,D,^F,]4 | [D,,G,,]8 | (D,^D,- (3D,^F,=F, E,4) | %70
 (=D,^D,- (3D,^F,=F, E,4) | (^D,E,- (3E,G,^F, =F,4) | x4 =F,4 | [^C,,^G,,]8[K:treble] | %74
[K:bass] ^C,,8 | [^C,,^G,,]8[K:treble] |[K:bass] z (=B,,2 ^D, B,,^A,,^G,,^F,,) | %77
 =F,,2 =E,,2 D,,2 E,,2 | [F,,,C,,]6 x2 | [B,,,F,,]8 | x4[K:treble] B,4 | [=B,_A]8 | [=B,_A]8 | %83
 [=B,^G]8 | =B,4 x4 |[K:bass] ((^G,,2[K:treble] (3E)[K:bass]^F,,E,, D,,2- (3D,,^C,,B,,,) | %86
 (^C,,2 D,,2 ^D,,2 E,,2) ||[K:A] [A,,,E,,]4 F,4 | (3:2:2(E,2 ^E, ^F,2 A,2 G,2) | %89
 (3(G,F,3/2E,/ C,2) (B,,2- (3B,,C,D,) | (E,2 [A,,E,]2) (E,2 [A,,E,]2) | %91
 (3(D,,E,,F,, (3:2:1^^F,,3 (3:2:1^G,,3 (3:2:1C,3) | (3(F,G,^A, (3:2:1B,3 =C_E =F,2) | %93
 (D,2 E,2 =F,2[K:treble] (3^F,=G,_B,) | %94
[K:bass] (3:2:1([D,_B,D]3 (3:2:1^C,3 (3:2:1F,,3[K:treble] (3:2:2F,2 G,) | [=A,B,]4 [^A,CE]4 | %96
 [=A,B,]4[K:bass] ([A,B,]2 G,2) | [A,,,E,,]8 | (3:2:2(E,2 ^E, (3:2:2F,2 ^^F, x2 [E,,B,,]2) | %99
[K:treble] x8 | [A,DF]8 |[K:bass] [E,,B,,]8 | [A,,,A,,E,=G,]8 ||[K:C] [D,,A,,]8 | [D,,A,,]8 | %105
 [_B,,,=F,,]8 | [_B,,,F,,]2 x2 x4 | ^G,,,8 | !arpeggio![A,,,E,,^C,]2 E2 ^C2 E,2 | %109
 ^A,,2 [^F,,C,]4 [F,,^E,]2 | G,, A,,2 B,, [C,^F,]4 | G,, A,,2 B,, ^F,4 | [E,,,E,,]4[K:treble] x4 | %113
 [=CE^G=c]8[K:bass] | [F,,,C,,F,,]8[K:treble] |[K:bass] !arpeggio![E,G,CE]8 | (E,3 G,) (E,3 G,) | %117
 [G,,,G,,]8- | [G,,,G,,]8 | [G,,,-G,,-F,B,^D]8 | [G,,,G,,F,B,=D]8 | [C,,G,,]8- | [C,,G,,]8 | x8 | %124
 x8 | x8 | x8 | x8 | x8 | x8 | x8 |] %131
V:6
 x8 | x8 | x8 | x8 | (3x E,F, ^F,B, A,G, x2 | x8 | G,,4- G,,2 x2 | (G,,,4 C,,2)[K:treble] x2 | %8
[K:bass] [B,,,^F,,]8[K:treble][K:bass] | [B,,,^F,,]8[K:treble][K:bass] | E,,2 ^E,,2 ^F,,2 ^^F,,2 | %11
 x8 | F,,2 ^F,,2 G,,2 ^G,,2 | x8 | x4[K:treble] x4 |[K:bass] x2/3[K:treble] x10/3[K:bass] x4 | %16
 (D,,2 ^D,,2 E,,2) z2 | x8 | x8 | [C,,G,,]2 z2 z4 | x8 | x8 | x8 | x8 | x8 | x8 | x8 | x8 | x8 | %29
 x8 | x8 | x8 | x8 | x8 | x8 | x8 | G,,,8[K:treble] |[K:bass] x8 | x8 | x8 | x8 | x8 ||[K:B] x8 | %43
 x8 | x8 |[K:treble] x8 |[K:bass] x8 | x8 | x8 | x8 | x8 | _E,,2 =E,,4 z2 | %52
 x4[K:treble] x2[K:bass] x2 | x4[K:treble] x4 | x8 |[K:bass] x8 | x2[K:treble] x4[K:bass] x2 | %57
 B,,,8 | B,,,8 | =C,,8 | =C,,8 ||[K:F][M:4/4] x8 | x8 | x8 | x2[K:treble] x6 |[K:bass] x8 | x8 | %67
 x8 | x8 | ^C,,8 | ^C,,8 | =D,,8 | D,,8 | x4[K:treble] x4 |[K:bass] x8 | x2[K:treble] [=B,^D]6 | %76
[K:bass] x8 | A,,,6 =G,,,2 | x8 | x8 | [B,,,F,,]8[K:treble] | x8 | x8 | x8 | E,4 x4 | %85
[K:bass] x4/3[K:treble] x4/3[K:bass] x16/3 | x8 ||[K:A] x8 | x10/3 ^^F, x11/3 | x8 | x8 | x8 | x8 | %93
 x6[K:treble] x2 |[K:bass] x6[K:treble] (3:2:1[CE]3 | x8 | x4[K:bass] x4 | x8 | x8 |[K:treble] x8 | %100
 x8 |[K:bass] x8 | x8 ||[K:C] x8 | x8 | x8 | x8 | x8 | x8 | x8 | (D,,4 ^D,,4) | %111
 (=D,,4 [B,,,B,,]4) | x4[K:treble] x4 | x2[K:bass] x6 | x6[K:treble] x2 |[K:bass] x8 | [G,,,G,,]8 | %117
 x8 | x8 | x8 | x8 | x8 | x8 | x8 | x8 | x8 | x8 | x8 | x8 | x8 | x8 |] %131
V:7
 x8 | x2[K:treble] x6 | x8 | x8 | x8 | x8 | x8 | x8 | x8 | x8 | x8 | x8 | x8 | x8 | x8 | x8 | x8 | %17
[K:bass] x8 | x4[K:treble] x4 | x8 | x8 | x8 | x8 | x2 _F2 _E2 =D2 | x8 | x8 | x8 | B8 | x8 | %29
 [^D^F]4 E4 | x8 | x8 | x8 | x8 | x8 | x8 | x8 | x8 | [_B,D]8 | x8 | x8 | x8 ||[K:B] x8 | x8 | x8 | %45
 x8 | x8 | x8 | x8 | x8 | x8 | x8 | x8 | x8 | x8 | x8 | x8 | x8 | x8 | x8 | x8 || %61
[K:F][M:4/4][K:bass] x8 | x2[K:treble] x2 DC x2 |[K:bass] x8 | x2[K:treble] x6 | x8 | x8 | x8 | %68
 x8 | =B,2 ^B,2 E4 | ^G,4 E4 | =A,4 =F4 | x4 [=D=F]4 | x8 | x8 | x8 | x6[K:bass] x2 | x8 | %78
 x4[K:treble] x4 | x8 | x8 | x8 | x8 | x8 | x8 | x8 | x8 ||[K:A] x8 | x4 z c2 B | x8 | x8 | x8 | %92
 x8 | x8 | x8 |!8va(! x8 | x4!8va)! x4 | x8 | x8 | x8 | x8 | x8 | =G8 ||[K:C] x8 | x8 | x8 | x8 | %107
 x8 | x8 | x8 | x8 | G4 x4 | x8 | x!8va(! x7 | x8 | x6!8va)! x2 | x8 | x8 | x8 | x8 | x8 | x8 | %122
 x8 | x8 | x8 | x8 | x8 | x8 | x8 | x8 | x8 |] %131
V:8
 x8 | x2[K:treble] x6 | x8 | x8 | x8 | x8 | x8 | x8 | x8 | x8 | x8 | x8 | x8 | x8 | x8 | x8 | x8 | %17
[K:bass] x8 | x4[K:treble] x4 | x8 | x8 | x8 | x8 | [_G,_B,]8 | x8 | x8 | x8 | x8 | x8 | B,8 | x8 | %31
 x8 | x8 | x8 | x8 | x8 | x8 | x8 | x8 | x8 | x8 | x8 ||[K:B] x8 | x8 | x8 | x8 | x8 | x8 | x8 | %49
 x8 | x8 | x8 | x8 | x8 | x8 | x8 | x8 | x8 | x8 | x8 | x8 ||[K:F][M:4/4][K:bass] x8 | %62
 x2[K:treble] x6 |[K:bass] x8 | x2[K:treble] x6 | x8 | x8 | x8 | x8 | x4 [A,^C]4 | %70
 =B,2 ^B,2 [A,^C]4 | x4 [_B,=D]4 | A,4 B,4 | x8 | x8 | x8 | x6[K:bass] x2 | x8 | x4[K:treble] x4 | %79
 x8 | x8 | x8 | x8 | x8 | x8 | x8 | x8 ||[K:A] x8 | x8 | x8 | x8 | x8 | x8 | x8 | x8 |!8va(! x8 | %96
 x4!8va)! x4 | x8 | x8 | x8 | x8 | x8 | x8 ||[K:C] x8 | x8 | x8 | x8 | x8 | x8 | x8 | x8 | x8 | %112
 x8 | x!8va(! x7 | x8 | x6!8va)! x2 | x8 | x8 | x8 | x8 | x8 | x8 | x8 | x8 | x8 | x8 | x8 | x8 | %128
 x8 | x8 | x8 |] %131
V:9
 x8 | x8 | x8 | x8 | x8 | x8 | x8 | x6[K:treble] x2 |[K:bass] x2[K:treble] x4[K:bass] x2 | %9
 x2[K:treble] x4[K:bass] x2 | x8 | x8 | x8 | x8 | x4[K:treble] x4 | %15
[K:bass] x2/3[K:treble] x10/3[K:bass] x4 | x8 | x8 | x8 | x8 | x8 | x8 | x8 | x8 | x8 | x8 | x8 | %27
 x8 | x8 | x8 | x8 | x8 | x8 | x8 | x8 | x8 | x2[K:treble] x6 |[K:bass] x8 | x8 | x8 | x8 | x8 || %42
[K:B] x8 | x8 | x8 |[K:treble] x2 F,4 x2 |[K:bass] x8 | x8 | x8 | x2 [=F,,=D,]4 x2 | x8 | x8 | %52
 x4[K:treble] x2[K:bass] x2 | x4[K:treble] x4 | x8 |[K:bass] x8 | x2[K:treble] x4[K:bass] x2 | x8 | %58
 x8 | x8 | x8 ||[K:F][M:4/4] x8 | x8 | x8 | x2[K:treble] x6 |[K:bass] x8 | x8 | x8 | x8 | x8 | x8 | %71
 x8 | x8 | x4[K:treble] x4 |[K:bass] x8 | x2[K:treble] x6 |[K:bass] x8 | x8 | x8 | x8 | %80
 x4[K:treble] x4 | x8 | x8 | x8 | x8 |[K:bass] x4/3[K:treble] x4/3[K:bass] x16/3 | x8 ||[K:A] x8 | %88
 x8 | x8 | x8 | x8 | x8 | x6[K:treble] x2 |[K:bass] x6[K:treble] x2 | x8 | x4[K:bass] x4 | x8 | %98
 x8 |[K:treble] x8 | x8 |[K:bass] x8 | x8 ||[K:C] x8 | x8 | x8 | x8 | x8 | x8 | x8 | x8 | x8 | %112
 x4[K:treble] x4 | x2[K:bass] x6 | x6[K:treble] x2 |[K:bass] [G,,,G,,]8 | x8 | x8 | x8 | x8 | x8 | %121
 x8 | x8 | x8 | x8 | x8 | x8 | x8 | x8 | x8 | x8 |] %131

